src/assets/images/sol com nuvens.svg

<svg width="29" height="22" viewBox="0 0 29 22" fill="none" xmlns="http://www.w3.org/2000/svg">
<path d="M20 16.2V17M27.2 9H28M20 1.8V1M12.8 9H12" stroke="#ED653B" stroke-width="2" stroke-linecap="round" stroke-linejoin="round"/>
<path d="M20 5C22.208 5 24 6.792 24 9C24 11.208 22.208 13 20 13C17.792 13 16 11.208 16 9C16 6.792 17.792 5 20 5Z" fill="#ED653B" stroke="#ED653B" stroke-width="2" stroke-linecap="round" stroke-linejoin="round"/>
<path d="M25.2 14.2L25.6 14.6M25.2 3.79999L25.6 3.39999M14.8 3.79999L14.4 3.39999M14.8 14.2L14.4 14.6" stroke="#ED653B" stroke-width="2" stroke-linecap="round" stroke-linejoin="round"/>
<path d="M20.077 13.3679C19.8802 11.721 19.0865 10.185 17.8261 9.0118C16.5657 7.83861 14.9134 7.09783 13.14 6.9109C11.3667 6.72397 9.57758 7.10199 8.066 7.98299C6.55442 8.86399 5.41007 10.1957 4.82059 11.7597C3.4698 11.8624 2.21414 12.4462 1.31645 13.3889C0.418754 14.3317 -0.0513782 15.5602 0.0044609 16.8175C0.0603 18.0748 0.637782 19.2633 1.61602 20.1342C2.59427 21.0051 3.89743 21.491 5.25274 21.49H20.1243C21.2843 21.4842 22.3944 21.0507 23.2102 20.285C24.0261 19.5193 24.4809 18.4841 24.4746 17.407C24.4684 16.33 24.0015 15.2993 23.1768 14.5418C22.3521 13.7844 21.2371 13.3621 20.077 13.3679Z" fill="white"/>
</svg>

<svg xmlns="http://www.w3.org/2000/svg" width="29" height="22" fill="none" viewBox="0 0 29 22"><path stroke="#ed653b" stroke-linecap="round" stroke-linejoin="round" stroke-width="2" d="M20 16.2v.8m7.2-8h.8m-8-7.2V1m-7.2 8H12"/><path fill="#ed653b" stroke="#ed653b" stroke-linecap="round" stroke-linejoin="round" stroke-width="2" d="M20 5c2.208 0 4 1.792 4 4s-1.792 4-4 4-4-1.792-4-4 1.792-4 4-4"/><path stroke="#ed653b" stroke-linecap="round" stroke-linejoin="round" stroke-width="2" d="m25.2 14.2.4.4m-.4-10.8.4-.4m-10.8.4-.4-.4m.4 10.8-.4.4"/><path fill="#fff" d="M20.077 13.368c-.197-1.647-.99-3.183-2.25-4.356S14.912 7.098 13.14 6.91a8.36 8.36 0 0 0-5.074 1.072c-1.512.881-2.656 2.213-3.245 3.777-1.351.102-2.607.686-3.505 1.629S-.05 15.56.004 16.817c.056 1.258.634 2.446 1.612 3.317s2.281 1.357 3.637 1.356h14.871c1.16-.006 2.27-.44 3.086-1.205s1.27-1.8 1.265-2.878c-.007-1.077-.474-2.108-1.298-2.865a4.56 4.56 0 0 0-3.1-1.174"/></svg>
